Papirus/22x22/panel/yd-ind-pause.svg

<?xml version="1.0" encoding="UTF-8" standalone="no"?>
<svg xmlns:dc="http://purl.org/dc/elements/1.1/" xmlns:cc="http://creativecommons.org/ns#" xmlns:rdf="http://www.w3.org/1999/02/22-rdf-syntax-ns#" xmlns:svg="http://www.w3.org/2000/svg" xmlns="http://www.w3.org/2000/svg" version="1.0" width="22" height="22" id="svg2817">
    <metadata id="metadata57">
        <rdf:RDF>
            <cc:Work rdf:about="">
                <dc:format>
                    image/svg+xml
                </dc:format>
                <dc:type rdf:resource="http://purl.org/dc/dcmitype/StillImage"/>
                <dc:title/>
            </cc:Work>
        </rdf:RDF>
    </metadata>
    <path style="fill:#ffffff;fill-opacity:1;opacity:0.3" d="M 3.2807432,13.097359 C 3.157918,13.230516 3.0661325,13.345253 3,13.436305 3.0749857,13.3342 3.1708246,13.219463 3.2807432,13.097359 Z M 18.484288,9.220528 c 0.04276,0.02057 0.08624,0.04075 0.121642,0.06166 -0.0272,-0.01604 -0.07004,-0.03786 -0.121642,-0.06166 z M 10.262524,9.58158 C 14.800601,8.334215 17.236304,8.777898 18.180292,9.100002 17.142438,8.743162 15.10993,8.455267 14.067276,7.834216 13.071022,7.240744 12.011302,5.4442763 9.3713345,6.1699585 6.7319538,6.8956929 6.7256072,8.931055 6.1153748,10.021052 5.6156476,10.914734 4.0675068,12.221046 3.2809565,13.096832 4.0280939,12.284203 5.9292971,10.773681 10.262737,9.58158 Z M 11.6328,6.9362189 c 0.248274,-0.068182 0.639352,0.012276 0.946868,0.2324991 0.437035,0.312457 0.568313,0.788103 0.09316,0.918734 -0.475674,0.130611 -1.084254,-0.213199 -1.273531,-0.59384 -0.133236,-0.268725 -0.0144,-0.489556 0.233517,-0.5573664 z M 9.6893572,7.277219 c 0.4067148,-0.111301 0.8103368,0.08185 0.9021758,0.432534 0.09132,0.349952 -0.163998,0.724841 -0.57066,0.836261 C 9.6140782,8.657693 9.2105365,8.464664 9.1186443,8.113974 9.0273283,7.764038 9.2825996,7.389397 9.6894106,7.277239 Z M 7.1335489,8.665951 C 7.2930669,8.317268 7.5922205,8.047268 7.8399935,7.978743 8.0876277,7.910693 8.2986651,8.040773 8.3139076,8.341478 8.3355076,8.768256 7.9760344,9.378159 7.500371,9.509106 7.0255769,9.639706 6.9075783,9.160775 7.1334955,8.665951 Z m 11.8441201,1.816152 c -0.319996,-1.234206 -4.061816,-1.160522 -8.389229,0.03632 -4.327147,1.196839 -7.6036398,3.063675 -7.2825771,4.297355 0.21668,0.834998 2.0640278,1.307787 4.5751434,1.156102 1.0494803,0.09 2.4553827,-0.06442 3.9547247,-0.476766 1.477795,-0.406095 2.756019,-0.982367 3.620808,-1.588312 2.319972,-1.178154 3.741767,-2.57494 3.52097,-3.424726 z m -7.293243,4.430934 c -1.8823768,0.517651 -3.4816104,0.658525 -3.6081155,0.172968 -0.1268357,-0.485057 1.3020639,-1.275943 3.1848145,-1.79331 1.882163,-0.518146 3.505769,-0.564999 3.632808,-0.07972 0.126836,0.48482 -1.327397,1.182681 -3.20956,1.700101 z" id="yandex-ufo"/>
</svg>

<?xml version="1.0" encoding="UTF-8" standalone="no"?>
<svg id="svg2817" xmlns:rdf="http://www.w3.org/1999/02/22-rdf-syntax-ns#" xmlns="http://www.w3.org/2000/svg" height="22" width="22" version="1.0" xmlns:cc="http://creativecommons.org/ns#" xmlns:dc="http://purl.org/dc/elements/1.1/">
 <metadata id="metadata57">
  <rdf:RDF>
   <cc:Work rdf:about="">
    <dc:format>image/svg+xml</dc:format>
    <dc:type rdf:resource="http://purl.org/dc/dcmitype/StillImage"/>
    <dc:title/>
   </cc:Work>
  </rdf:RDF>
 </metadata>
 <path id="yandex-ufo" opacity=".3" d="m3.2807 13.097c-0.1228 0.134-0.2146 0.248-0.2807 0.339 0.075-0.102 0.1708-0.217 0.2807-0.339zm15.203-3.8765c0.04276 0.02057 0.08624 0.04075 0.12164 0.06166-0.0272-0.01604-0.07004-0.03786-0.12164-0.06166zm-8.221 0.3611c4.538-1.2474 6.973-0.8037 7.917-0.4816-1.038-0.3568-3.07-0.6447-4.113-1.2658-0.996-0.5935-2.056-2.3899-4.6957-1.6642-2.6393 0.7257-2.6457 2.7611-3.2559 3.851-0.4998 0.894-2.0479 2.2-2.8344 3.076 0.7471-0.813 2.6483-2.323 6.982-3.5154zm1.37-2.6454c0.24827-0.068182 0.63935 0.012276 0.94687 0.2325 0.43704 0.31246 0.56831 0.7881 0.09316 0.91873-0.47567 0.13061-1.0843-0.2132-1.2735-0.59384-0.13324-0.26872-0.0144-0.48956 0.23352-0.55737zm-1.9436 0.341c0.40671-0.1113 0.81034 0.08185 0.90218 0.43253 0.09132 0.34995-0.164 0.72484-0.57066 0.83626-0.4069 0.1117-0.8105-0.0813-0.9024-0.432-0.0913-0.35 0.164-0.7246 0.5708-0.8368zm-2.5559 1.3888c0.1596-0.3487 0.4587-0.6187 0.7065-0.6873 0.2476-0.068 0.4587 0.0621 0.4739 0.3628 0.0216 0.4268-0.3379 1.0367-0.8135 1.1676-0.4748 0.1306-0.5928-0.3483-0.3669-0.8431zm11.844 1.8162c-0.32-1.2342-4.0618-1.1605-8.3892 0.03632-4.3271 1.1968-7.6036 3.0637-7.2826 4.2974 0.21668 0.835 2.064 1.3078 4.5751 1.1561 1.0495 0.09 2.4554-0.06442 3.9547-0.47677 1.4778-0.4061 2.756-0.98237 3.6208-1.5883 2.32-1.1782 3.7418-2.5749 3.521-3.4247zm-7.2932 4.4309c-1.8824 0.51765-3.4816 0.65852-3.6081 0.17297-0.12684-0.48506 1.3021-1.2759 3.1848-1.7933 1.8822-0.51815 3.5058-0.565 3.6328-0.07972 0.12684 0.48482-1.3274 1.1827-3.2096 1.7001z" fill="#fff"/>
</svg>
